X: 1
T: Witchman's Thistle
R: hornpipe
M: 4/4
L: 1/8
K: Gmaj
|:EDEF GFGA|BcBG E4|BcBG E2B2|ABAF D4|
EDEF GFGA|BcBG E4|B2A2 G2F2|E4 D4:|
|:B3c dBG2|edce dBG2|edce dBG2|cBAG A4|
B3c dBG2|edce dBG2|edcB cBAG|1 ABcB A2 D2:|2 A2A2 G4||

